X:143
T:Fox in the Dumps, The
M:C
L:1/8
B:Thompson's Compleat Collection of 200 Favourite Country Dances, vol. 3 (London, 1773)
Z:Transcribed and edited by Flynn Titford-Mock, 2007
Z:abc's:AK/Fiddler's Companion
K:F
cB | Ac f4 ed | ef g4 fe | fg a2 bgaf | eg c4 cB | Ac f4 ed | ef g4 b2 | afge fd cd/e/ | f2 (F2F2) :|
|: c2 | fcAc FAcf | gfed cegb | afcA FAfa | gfed c2 "tr"c2 | dB "tr"B2 bg "tr"g2 | afed c2 "tr"c2 | dBcA BGAB | A2 (F2 F4) :|

